X:1
T:Title
%%score { ( 1 4 ) | ( 2 3 ) }
L:1/8
M:6/8
K:F
V:1 treble nm="Grand Piano"
V:4 treble 
V:2 bass 
V:3 bass 
V:1
 z3 z2[Q:1/4=90] C | C2 A A2 [DFB] | [CFA]2 [B,EG] [B,EG]2 [A,F] | [G,CE]2 [G,DF] [CEG]2 [CGB] | %4
[M:5/8] B2 A A2 |[M:1/8] C |[M:3/4] C2 A A2 c |[M:7/8] c2 A [Fd]3 [Fd] | %8
[M:3/4] [Fc]2 [CFA][CFA] [EG][A,F] |[M:5/8] [B,EG]3 F2 |[M:1/8] c |[M:3/4] c2 AA Bc | %12
 c2 B [EG]2 [GB] | [GB]2 [EG][EG] [FA][GB] |[M:5/8] d2 c A2 |[M:1/8] C |[M:3/4] C2 A A2 c | %17
[M:7/8] c2 A [Fd]3 [Fd] |[M:3/4] [Fc]2 [CFA][CFA] [EG][A,F] |[M:5/8] [B,EG]3 [F,A,F]2 |] %20
V:2
 z3 z2 [F,A,] | [F,A,]2 [F,CF] [F,CF]2 B,, | C,2 C, C,2 C, | C,2 C, C,2 E, | %4
[M:5/8] [F,DF]2 [F,CF] [F,CF]2 |[M:1/8] [F,A,] |[M:3/4] [F,A,]2 [F,CF] [F,CF]2 [F,A,F] | %7
[M:7/8] [F,A,F]2 [F,CF] [B,,B,]3 [B,,B,] |[M:3/4] [F,A,]2 .F,2 B,C, |[M:5/8] C,3 [F,A,]2 | %10
[M:1/8] [F,A,F] |[M:3/4] [F,A,F]2 .[F,CF]2 G,[F,A,F] | [C,G,]3 [C,C]2 [C,C] | %13
 [C,C]2 [C,C] [C,C]2 [E,C] |[M:5/8] [F,F]2- [F,A,F] [F,CF]2 |[M:1/8] [F,A,] | %16
[M:3/4] [F,A,]2 [F,CF] [F,CF]2 [F,A,F] |[M:7/8] [F,A,F]2 [F,CF] [B,,B,]3 [B,,B,] | %18
[M:3/4] [F,A,]2 .F,2 B,C, |[M:5/8] C,3 F,,2 |] %20
V:3
 x6 | x6 | x6 | x6 |[M:5/8] x5 |[M:1/8] x |[M:3/4] x6 |[M:7/8] x7 |[M:3/4] z2 z .C,3 |[M:5/8] x5 | %10
[M:1/8] x |[M:3/4] z2 z .[F,C]3 | x6 | x6 |[M:5/8] B,2 z z2 |[M:1/8] x |[M:3/4] x6 |[M:7/8] x7 | %18
[M:3/4] z2 z .C,3 |[M:5/8] x5 |] %20
V:4
 x6 | x6 | x6 | x6 |[M:5/8] x5 |[M:1/8] x |[M:3/4] x6 |[M:7/8] x7 |[M:3/4] x6 |[M:5/8] x5 | %10
[M:1/8] x |[M:3/4] x6 | E4 z2 | x6 |[M:5/8] x5 |[M:1/8] x |[M:3/4] x6 |[M:7/8] x7 |[M:3/4] x6 | %19
[M:5/8] x5 |] %20

